X: 20922
T: La PIPE TABAC
O: FRENCH AIR
Q: "Allegretto"
%R: reel
B: "Edinburgh Repository of Music" v.2 p.92 #2
F: http://digital.nls.uk/special-collections-of-printed-music/pageturner.cfm?id=87776133
Z: 2015 John Chambers <jc:trillian.mit.edu>
M: 2/4
L: 1/16
K: C
c>de>f |\
g2c'2 a3f | (ag)g2 (gf)(df) | e2g2 d2ed | c4 c>de>f |\
g2c'2 a3f | (ag)g2 (gf)df | (e2g2) (d2g2) | e4 (gf)(df) | e2c'2 {e}d>cde | c4 :|

% - - - - tune continued onto next page - - - - %

%%sep 2 1 500
%%sep 1 1 500

